X:1
T:Jan, petit Jan
T:Jan, petit Jan
T:Lheritier
C:Lheritier
%%score [ 1 2 3 4 ]
L:1/8
Q:1/4=120
M:2/2
K:Eb
V:1 treble nm="Soprano" snm="S"
V:2 treble nm="Alto" snm="A"
V:3 treble-8 nm="Tenor" snm="T"
V:4 bass nm="Bass" snm="B"
V:1
 z2 F2 A4 | B4 c4- | c4 z4 | e4 d2 c2 | B4 (3ccc (3BBB | G2 c2 c3 B | B2 A2 G2 F2 | A2 AA G2 F2 | %8
w: Jan, pe-|tit Jan|_|Jan, pe- tit|Jan pe- tit Jan, pe- tit Jan,|Jan, quant tu as|bel- le fem- me,|quant tu as bel- le|
 (F2 =E2) F4 | z4 c2 cc | B3 c d2 (e2 | e)d c4 B2 | c2 A2 G3 A | B2 (c4 B2) | (c8 | c8) | z8 | %17
w: fem- * me|Gar- de la|bien mais ne sois|_ _ point ja-|loux, mais ne sois|point ja- *|leux|_||
 z2 B2 c3 B | A2 G2 F2 E2 | (A2 B4) A2- | A2 G2 A2 c2 | BGAB G2 c2 | BGAB G2 G2 | A3 A G2 F2 | %24
w: Car ton bon|bruyt tour- ne- roit|en _ dif-|* fa- me Pe-|tit Jan, pe- tit Jan, pe-|tit Jan, pe- tit Jan, quant|tu as bel- le|
 (F2 =E2) F4- | F4 z2 c2 | e3 e d2 B2 | c2 e2 d2 c2- | c2 B2 c4- | c4 z4 | z4 z2 B2 | c3 c A2 c2 | %32
w: fem _ me|_ Sy|tu ne l'es, tu|se- ras trop _|_ heu- reux|_|Lais-|se pas- ser le|
 (c3 B/)A/ G2 (B2 | B)A A4 G2 | A2 c2 BGAB | G2 G2 A3 A | G2 F2 (F2 =E2) | F2 c2 c2 B2 | c4 z4 | %39
w: tems _ _ _ aux|_ _ a- mou-|reux Pe- tit Jan, pe- tit|Jan, quant tu as|bel- le fem- *|me sans par- ler|d'eulx|
 z2 c2 B2 c2 | F2 A2 G4 | F8 | z4 c4 | B2 G2 A2 F2 | (G2 A3 G F2- | F2 =E2) F2 c2 | c2 B2 c4 | %47
w: ne leur don-|ner nul blas-|me,|ne|leur don- ner nul|blas- * * *|* * me Lors|ilz di- ront|
 z4 B4 | A3 G F2 E2 | F2 c2 d3 c | c2 B2 c2 G2 | AGAF G2 G2 | AGAF G2 G2 | A3 A G2 F2 | %54
w: Fy|pour ces en- vi-|eux, Fy pour ces|en- vi- eux Car|pe- tit, pe- tit Jan, car|pe- tit, pe- tit Jan mons-|tre bien qu'il nous|
 (F2 =E2) F2 G2 | AGAF G2 G2 | A3 A G2 F2 | (F2 =E2) F4 |] %58
w: ay- * me, car|pe- tit, pe- tit Jan mon-|stre bien qu'il nous|ay- * me.|
V:2
 z4 z2 F2 | E2 D2 C4- | C4 z4 | z2 E2 F2 F2 | G4 (3AAA (3GGG | E2 G2 A3 F | G2 F2 E2 F2 | %7
w: Jan,|pe- tit Jan|_|Jan, pe- tit|Jan pe- tit Jan, pe- tit Jan,|Jan, quant tu as|bel- le fem- me,|
 F2 EE E2 C2 | C4 C4 | F2 FF E2 F2 | G2 E2 F2 (G2 | G)F E2 D4 | (C3 D) EF G2- | G2 F2 G4 | (E8 | %15
w: quant tu as bel- le|fem- me|Gar- de la bien mais|ne sois point ja-||loux _ _ _ _|_ _ ja-|leux|
 E4) z4 | z8 | z4 E4 | E2 E2 C3 C | C2 E3 C D2 | E4 E2 F2 | GGFD E2 F2 | GGFD E2 E2 | F3 C E2 C2 | %24
w: _||Car|ton bon bruyt tour-|ne roit en dif-|fa- me Pe-|tit Jan, pe- tit Jan, pe-|tit Jan, pe- tit Jan, quant|tu as bel- le|
 C4 C4 | z2 F2 A3 A | G2 E2 F2 G2 | C2 A2 A2 G2 | A2 G2 E4 | z8 | z8 | E4 F2 E2 | F3 E E2 E2 | %33
w: fem- me|Sy tu ne|l'es, sy tu ne|l'es, tu se- ras|trop heu- reux|||Lais- se pas-|ser le tems aux|
 C2 D2 (E4 | E2) F2 GGFD | E2 E2 F3 C | E2 C2 C4 | C2 F2 E2 D2 | C4 z2 F2 | E3 F G2 (A2 | %40
w: a- mou- reux|_ Pe- tit Jan, pe- tit|Jan, quant tu as|bel- le fem-|me sans par- ler|d'eulx ne|leur don- ner nul|
 A)G F4 =E2 | F4 z4 | z4 z2 C2 | D2 E2 C2 D2- | D2 (C4 B,2) | C6 A2 | G2 F2 G2 G2 | G2 F2 G2 D2 | %48
w: _ _ _ blas-|me,|ne|leur don- ner nul|_ blas- *|me Lors|ilz di- ront, lors|ilz di- ront Fy|
 E3 D C2 B,2 | C2 A2 B3 G | A2 G2 E2 E2 | FEFD E2 E2 | FECD E2 E2 | F3 C E2 C2 | C4 C2 E2 | %55
w: pour ces en- vi-|'ux, Fy pour ces|en- vi- eux Car|pe- tit, pe- tit Jan, car|pe- tit, pe- tit Jan mons-|tre bien qu'il nous|ay- me, car|
 FECD E2 E2 | F3 C E2 C2 | C4 C4 |] %58
w: pe- tit, pe- tit Jan mons-|tre bien qu'il nous|ay- me.|
V:3
 z8 | z4 F4 | A4 B4 | c4 z2 c2 | d2 e2 (3fff (3ddd | c8 | z4 c4 | c3 A B2 A2 | G4 F2 A2 | A4 A4 | %10
w: |Jan,|pe- tit|Jan, pe-|ti Jan, pe- tit Jan, pe- tit Jan,|Jan,|quant|tu as bel- le|fem- me, Gar-|de la|
 G4 z4 | z4 B2 BB | A2 F2 c2 e2 | e2 dc d2 d2 | c2 c2 c3 B | A2 G2 (F2 E2) | (A2 B3) A A2- | %17
w: bien|Gar- de la|bien mais ne sois|point ja- * leux Car|ton bon bruyt tour-|ne- roit en _|_ _ _ dif-|
 A2 G2 A2 c2 | c3 B A2 G2 | F2 G2 A2 A2 | B4 A2 c2 | dccB c2 c2 | dccB c2 c2 | c3 A B2 A2 | %24
w: * fa me Car|ton bon bruyt tour-|ne- roit en dif-|fa- me Pe-|tit Jan, pe- tit Jan, pe-|tit Jan, pe- tit Jan, quant|tu as be- le|
 G4 F2 c2 | _d2 d2 c4 | z4 z2 e2- | e2 e2 f2 e2 | d4 c2 G2 | A3 A G2 c2 | B2 A2 A2 G2 | %31
w: fem- me Sy|tu ne l'es|tu|_ se- ras trop|heu- reux Lais-|se pas- ser le|tems aux a- mou-|
 A2 c2 c3 c | A2 c2 B2 G2 | A4 B4 | A2 c2 dccB | c2 c2 c3 A | B2 A2 G4 | F4 z4 | z2 c2 c2 B2 | %39
w: reux, lais- se pas-|ser le tems aux|a- mou-|reux Pe- tit Jan, pe- tit|Jan, quant tu as|bel- le fem-|me|Sans par- ler|
 c4 z4 | z4 z2 c2 | A2 F2 c2 A2 | B2 c2 F2 A2 | G4 F2 B2- | B2 A2 (F4 | G4) F2 f2 | e2 d2 c2 e2 | %47
w: d'eulx|ne|leur don- ner nul|blas- * me, nul|blas- me, nul|_ _ blas-|* me Lors|ilz di- ront, lors|
 d2 c2 d2 B2 | c3 B A2 G2 | F2 f2 f3 e | f2 d2 c4 | z4 z2 c2 | ccAA B2 c2 | c3 A B2 A2 | G4 F2 c2 | %55
w: ilz di- ront Fy|pour ces en- vi-|eux, Fy pour ces|en- vi- eux|Car|pe- tit, pe- tit Jan mons-|tre bien qu'il nous|ay- me, car|
 ccAA B2 c2 | c3 A B2 A2 | G4 F4 |] %58
w: pe- tit, pe- tit Jan mons-|tre bien qu'il nous|ay- me.|
V:4
 z8 | z8 | z2 F,2 E,2 D,2 | C,2 C2 B,2 A,2 | G,4 (3F,F,F, (3G,G,G, | C,4 F,4 | z4 z2 F,2 | %7
w: ||Jan, pe- tit|Jan, Jan, pe- tit|Jan pe- tit Jan, pe- tit Jan,|Jan, Jan,|quant|
 F,2 A,2 E,2 F,2 | C,4 F,4- | F,4 z4 | z8 | z8 | F,2 F,F, E,2 C,2 | G,2 A,2 G,2 G,2 | C,4 z2 C2 | %15
w: tu as bel- le|fem- me|_|||Gar- de la bien mais|ne sois point ja-|leux Car|
 C3 B, A,2 G,2 | F,2 E,2 D,2 C,2 | B,,4 A,,2 A,2 | A,2 E,2 F,2 C,2 | F,2 E,2 F,2 F,2 | %20
w: ton bon bruyt tour-|ne- roit en dif-|fa- me, Car|ton bon bruyt tour-|ne- roit en dif-|
 E,4 A,,2 A,2 | G,E,F,G, C,2 A,2 | G,E,F,G, C,2 C,2 | F,3 F, E,2 F,2 | C,4 F,2 F,2 | B,2 B,2 F,4 | %26
w: fa- me Pe-|tit Jan, pe- tit Jan, pe-|tit Jan, pe- tit Jan, quant|tu as bel- le|fem- me Sy|tu ne l'es|
 z8 | z2 C,2 D,2 E,2 | F,2 G,2 C,4 | F,2 F,F, E,3 C, | D,2 C,2 B,,2 B,,2 | A,,2 A,2 A,3 A, | %32
w: |tu se- ras|trop heu- reux|Lais- se pas- ser le|tems aux a- mou-|reux, lais- se pas-|
 F,2 G,2 E,2 E,2 | F,2 F,2 E,4 | z2 A,2 G,E,F,G, | C,2 C,2 F,3 F, | E,2 F,2 C,4 | F,4 z4 | %38
w: ser le tems aux|a- mou- reux|Pe- tit Jan, pe- tit|Jan, quant tu as|bel- le fem-|me|
 F,4 E,2 D,2 | C,4 z4 | z8 | z2 C2 (A,2 F,2) | G,2 A,3 G, F,2- | F,2 E,2 F,2 D,2 | E,2 F,3 E, D,2 | %45
w: Sans par- ler|d'eulx||ne leur _|don- ner nul blas-|* me, ne leur|don- ner nul blas-|
 C,4 F,4 | z4 z2 C2 | B,2 A,2 G,4 | z8 | z2 F,2 B,3 C | F,2 G,2 C,4 | z4 C,4 | F,C,F,F, E,2 C,2 | %53
w: * me|Lors|ilz di- ront||Fy pour ces|en- vi- eux|Car|pe- tit, pe- tit Jan mons-|
 F,3 F, E,2 F,2 | C,4 F,2 C,2 | F,C,F,F, E,2 C,2 | F,3 F, E,2 F,2 | C,4 F,4 |] %58
w: tre bien qu'il nous|ay- me, car|pe- tit, pe- tit Jan mons-|tre bien qu'il nous|ay- me.|

